picto/couchette-car-framed.svg

<svg class="color-immutable" width="30" height="30" viewBox="0 0 30 30" fill="none" xmlns="http://www.w3.org/2000/svg"><path d="M30 0H0V30H30V0Z" fill="#2D327D"/><path d="M25.5 3C26.325 3 27 3.675 27 4.5V25.5C27 26.325 26.325 27 25.5 27H4.5C3.675 27 3 26.325 3 25.5V4.5C3 3.675 3.675 3 4.5 3H25.5ZM25.5 2.625H4.5C3.46613 2.625 2.625 3.46613 2.625 4.5V25.5C2.625 26.5339 3.46613 27.375 4.5 27.375H25.5C26.5339 27.375 27.375 26.5339 27.375 25.5V4.5C27.375 3.46613 26.5339 2.625 25.5 2.625Z" fill="white"/><path d="M22.8 17.1V20.1H7.2V17.1H6V24H7.2V21.6H22.8V24H24V17.1H22.8Z" fill="white"/><path d="M12.3 19.5H8.10005C7.93437 19.5 7.80005 19.3657 7.80005 19.2V17.4C7.80005 17.2343 7.93437 17.1 8.10005 17.1H11.4C12.0628 17.1 12.6 17.6372 12.6 18.3V19.2C12.6 19.3657 12.4657 19.5 12.3 19.5Z" fill="white"/></svg>

<svg class="color-immutable" width="30" height="30" viewBox="0 0 30 30" fill="none" xmlns="http://www.w3.org/2000/svg"><g clip-path="url(#a)"><path d="M30 0H0v30h30V0Z" fill="#2D327D"/><path d="M25.5 3c.825 0 1.5.675 1.5 1.5v21c0 .825-.675 1.5-1.5 1.5h-21c-.825 0-1.5-.675-1.5-1.5v-21C3 3.675 3.675 3 4.5 3h21Zm0-.375h-21A1.877 1.877 0 0 0 2.625 4.5v21c0 1.034.841 1.875 1.875 1.875h21a1.877 1.877 0 0 0 1.875-1.875v-21A1.877 1.877 0 0 0 25.5 2.625Z" fill="#fff"/><path d="M22.8 17.1v3H7.2v-3H6V24h1.2v-2.4h15.6V24H24v-6.9h-1.2Z" fill="#fff"/><path d="M12.3 19.5H8.1a.3.3 0 0 1-.3-.3v-1.8a.3.3 0 0 1 .3-.3h3.3a1.2 1.2 0 0 1 1.2 1.2v.9a.3.3 0 0 1-.3.3Z" fill="#fff"/></g><defs><clipPath id="a"><path fill="#fff" d="M0 0h30v30H0z"/></clipPath></defs></svg>
